icons/hand.svg

<svg width="24" height="24" viewBox="0 0 24 24" fill="none" xmlns="http://www.w3.org/2000/svg">
<path fill-rule="evenodd" clip-rule="evenodd" d="M12.5118 3C12.3803 3 12.2539 3.0523 12.1605 3.14589C12.067 3.23954 12.0142 3.36688 12.0142 3.5V12C12.0142 12.5523 11.5664 13 11.0142 13C10.4619 13 10.0142 12.5523 10.0142 12V5.5C10.0142 5.36688 9.96134 5.23954 9.86784 5.14589C9.77439 5.0523 9.64798 5 9.51651 5C9.38503 5 9.25863 5.0523 9.16518 5.14589C9.07168 5.23954 9.01887 5.36688 9.01887 5.5V13.5C9.01887 14.0523 8.57115 14.5 8.01887 14.5C8.01206 14.5 8.00526 14.4999 7.99848 14.4998C7.62534 14.5106 7.26125 14.311 7.07937 13.9568L6.22369 12.2903C6.11628 12.1664 5.96851 12.084 5.80607 12.0583C5.62382 12.0295 5.43744 12.0743 5.28787 12.1833C5.13824 12.2923 5.03757 12.4567 5.00858 12.6406C4.97959 12.8245 5.02478 13.0122 5.13386 13.1624C5.16397 13.2039 5.19085 13.2476 5.21426 13.2932L7.8856 18.4957C8.30984 19.1342 8.90243 19.6969 9.63069 20.1345C10.3567 20.5708 11.1941 20.8685 12.0836 21H14.0094C15.3325 21 16.6017 20.4736 17.5377 19.5361C18.4738 18.5985 19 17.3266 19 16V7.5C19 7.36688 18.9472 7.23954 18.8537 7.14589C18.7602 7.0523 18.6338 7 18.5024 7C18.3709 7 18.2445 7.0523 18.151 7.14589C18.0575 7.23954 18.0047 7.36689 18.0047 7.5V12C18.0047 12.5523 17.557 13 17.0047 13C16.4524 13 16.0047 12.5523 16.0047 12V5.5C16.0047 5.36689 15.9519 5.23954 15.8584 5.14589C15.765 5.0523 15.6386 5 15.5071 5C15.3756 5 15.2492 5.0523 15.1557 5.14589C15.0622 5.23954 15.0094 5.36688 15.0094 5.5V12C15.0094 12.5523 14.5617 13 14.0094 13C13.4572 13 13.0094 12.5523 13.0094 12V3.5C13.0094 3.36689 12.9566 3.23954 12.8631 3.14589C12.7697 3.0523 12.6433 3 12.5118 3ZM14.9702 3.05844C14.8808 2.55982 14.6413 2.09623 14.2785 1.73279C13.8102 1.26377 13.1747 1 12.5118 1C11.8489 1 11.2134 1.26377 10.7451 1.73279C10.3823 2.09623 10.1428 2.55982 10.0534 3.05844C9.87844 3.01988 9.69851 3 9.51651 3C8.85359 3 8.21813 3.26377 7.74985 3.73279C7.28163 4.20175 7.01887 4.83747 7.01887 5.5V10.3959C6.74234 10.2404 6.43793 10.1334 6.11847 10.0829C5.41132 9.97107 4.68895 10.1452 4.11032 10.5667C3.53175 10.9881 3.14443 11.6222 3.03298 12.3291C2.926 13.0077 3.08156 13.7006 3.46621 14.2674L6.13086 19.4568C6.14639 19.487 6.16346 19.5165 6.18199 19.545C6.7846 20.4721 7.61501 21.2566 8.60051 21.8488C9.58581 22.4409 10.7058 22.8289 11.8757 22.9906C11.921 22.9969 11.9668 23 12.0126 23H14.0094C15.864 23 17.6422 22.2621 18.9531 20.9492C20.2639 19.6363 21 17.856 21 16V7.5C21 6.83747 20.7372 6.20175 20.269 5.73279C19.8007 5.26378 19.1653 5 18.5024 5C18.3204 5 18.1404 5.01988 17.9655 5.05844C17.8761 4.55982 17.6366 4.09623 17.2737 3.73279C16.8055 3.26377 16.17 3 15.5071 3C15.3251 3 15.1451 3.01988 14.9702 3.05844Z" fill="black"/>
</svg>

<svg
  width="24"
  height="24"
  viewBox="0 0 24 24"
  xmlns="http://www.w3.org/2000/svg"
>
  <path
    fill-rule="evenodd"
    clip-rule="evenodd"
    d="M12.512 3a.496.496 0 0 0-.498.5V12a1 1 0 0 1-2 0V5.5a.501.501 0 0 0-.497-.5.496.496 0 0 0-.498.5v8a1 1 0 0 1-1.02 1 1 1 0 0 1-.92-.543l-.855-1.667a.697.697 0 0 0-1.215.35.702.702 0 0 0 .125.522c.03.042.057.086.08.131l2.672 5.203a5.45 5.45 0 0 0 1.745 1.639 6.66 6.66 0 0 0 2.453.865h1.925a4.986 4.986 0 0 0 3.529-1.464A5.005 5.005 0 0 0 19 16V7.5a.501.501 0 0 0-.498-.5.497.497 0 0 0-.497.5V12a1 1 0 1 1-2 0V5.5a.501.501 0 0 0-.498-.5.497.497 0 0 0-.498.5V12a1 1 0 1 1-2 0V3.5a.501.501 0 0 0-.497-.5zm2.458.058A2.501 2.501 0 0 0 12.512 1a2.497 2.497 0 0 0-2.459 2.058 2.494 2.494 0 0 0-2.303.675A2.501 2.501 0 0 0 7.019 5.5v4.896a2.695 2.695 0 0 0-3.986 1.933 2.703 2.703 0 0 0 .433 1.938l2.665 5.19c.015.03.032.06.051.088a7.435 7.435 0 0 0 2.419 2.304c.985.592 2.105.98 3.275 1.142.045.006.09.009.137.009h1.996a6.986 6.986 0 0 0 4.944-2.05A7.005 7.005 0 0 0 21 16V7.5a2.501 2.501 0 0 0-3.035-2.442 2.5 2.5 0 0 0-2.995-2z"
  />
</svg>
